!!! OTL: Berkowitz331
!!! Chapter: 1
!!! Section: III
!!! Page: 80
!!! Mode: 
!!! Encoder: DJB
**kern
*staff1
*I"Piano
=1-
*clefF4
*k[f#c#g#d#a#]
*B:
*met(c)
*M4/4
8.BB/L
16AA#/Jk
8BB/L
8C#/J
8D#/L
8BB/J
4F#\
=2
8.G#\L
16A#\Jk
8G#\L
8Gn\J
8F#\L
8B\J
4d#\
=3
8c#\L
8A#\J
[4F#\
8F#\L]
8E#\
8G#\
8F#\J
=4
8E\L
8D#\
8E\
8G#\J
4.AA#/
8AA#/
=5
8.BB/L
16C#/Jk
8D#/L
8BB/J
4.F#\
8Fn\
=6
!!linebreak:original
8.E\L
16D#\Jk
8E\L
8G#\J
8AA#/
4F#\
8E\
=7
8D#\L
8F#\J
8.B\L
16A#\Jk
8G#\L
8B\J
4e\
=8
8r
4D#\
8Dn\
8.C#/L
16BB#/Jk
8C#/L
8D#/J
=9
2BB/
2r
==
*-
